src/dsmComponents/Icons/device-mobile-sync-20px.svg

<?xml version="1.0" encoding="UTF-8"?>
<svg width="16px" height="20px" viewBox="0 0 16 20" version="1.1" xmlns="http://www.w3.org/2000/svg" xmlns:xlink="http://www.w3.org/1999/xlink">
    <!-- Generator: Sketch 59.1 (86144) - https://sketch.com -->
    <title>device-mobile-sync-20px</title>
    <desc>Created with Sketch.</desc>
    <defs>
        <path d="M14.4044479,16.2255044 L15.9998791,16.467843 C15.7291393,18.3369575 14.2630346,19.7798045 12.4355406,19.9774037 C11.2728097,20.1041655 10.1257913,19.6915684 9.28093792,18.8912295 L8.19797852,19.8966242 L8.17259666,16.2752149 L11.6740848,16.6778699 L10.482346,17.7802 C10.9778966,18.1940398 11.6196951,18.4003384 12.2663282,18.3307437 C13.3637916,18.2114385 14.2436961,17.3452332 14.4044479,16.2255044 Z M9.66928039,9.09494702e-13 C11.0048497,9.09494702e-13 12.0866005,1.11351501 12.0866005,2.48552457 L12.0866005,2.48552457 L12.0866005,9.45617822 C11.4629319,9.45617822 10.8658538,9.56802682 10.3014096,9.75568393 L10.3014096,9.75568393 L10.3014096,3.16283001 C10.3014096,2.47682523 9.7599299,1.92006773 9.09274955,1.92006773 L9.09274955,1.92006773 L3.04219734,1.92006773 C2.375017,1.92006773 1.83353729,2.47682523 1.83353729,3.16283001 L1.83353729,3.16283001 L1.83353729,16.7772908 C1.83353729,17.4645384 2.375017,18.0200531 3.04219734,18.0200531 L3.04219734,18.0200531 L6.71048059,18.0200531 L6.71048059,19.8841965 L2.4173201,19.8841965 C1.0829594,19.8841965 0,18.7706815 0,17.398672 L0,17.398672 L0,2.48552457 C0,1.11351501 1.0829594,9.09494702e-13 2.4173201,9.09494702e-13 L2.4173201,9.09494702e-13 Z M6.71072233,15.5345285 L6.71072233,16.7772908 L4.2305519,16.7772908 C3.89696173,16.7772908 3.62622188,16.4989121 3.62622188,16.1559097 C3.62622188,15.8129073 3.89696173,15.5345285 4.2305519,15.5345285 L4.2305519,15.5345285 L6.71072233,15.5345285 Z M14.8904501,12.0006097 L15.9746181,10.9964578 L16,14.6178671 L12.4985118,14.2152121 L13.6902506,13.112882 C13.1934914,12.6977994 12.5529015,12.4915008 11.9062684,12.5623383 C10.8088051,12.6816435 9.92890057,13.5478488 9.76694013,14.6675776 L8.17271752,14.4252389 C8.44345737,12.5561245 9.90956201,11.1132774 11.7358473,10.9144355 C12.899787,10.7889165 14.0468054,11.2002708 14.8904501,12.0006097 Z" id="path-1"></path>
    </defs>
    <g id="Final" stroke="none" stroke-width="1" fill="none" fill-rule="evenodd">
        <g id="All-Nucleo-Icons" transform="translate(-465.000000, -2326.000000)">
            <g id="Solo/Nucleo/20px/device-mobile-sync" transform="translate(461.000000, 2324.000000)">
                <g transform="translate(4.000000, 2.000000)">
                    <mask id="mask-2" fill="white">
                        <use xlink:href="#path-1"></use>
                    </mask>
                    <g id="p-sync"></g>
                    <g id="colour/neutral/chia" mask="url(#mask-2)" fill="#737373">
                        <g transform="translate(-23.000000, -22.000000)" id="Colour">
                            <rect x="0" y="0" width="64" height="64"></rect>
                        </g>
                    </g>
                </g>
            </g>
        </g>
    </g>
</svg>

<svg width="16" height="20" xmlns="http://www.w3.org/2000/svg" xmlns:xlink="http://www.w3.org/1999/xlink"><defs><path d="M14.404 16.226l1.596.242c-.27 1.869-1.737 3.312-3.564 3.51A3.97 3.97 0 019.28 18.89l-1.083 1.006-.025-3.622 3.501.403-1.192 1.102c.496.414 1.138.62 1.784.55 1.098-.119 1.978-.985 2.138-2.104zM9.67 0c1.336 0 2.418 1.114 2.418 2.486v6.97a5.64 5.64 0 00-1.786.3V3.163c0-.686-.541-1.243-1.208-1.243h-6.05c-.668 0-1.21.557-1.21 1.243v13.614c0 .688.542 1.243 1.21 1.243H6.71v1.864H2.417C1.083 19.884 0 18.771 0 17.4V2.486C0 1.114 1.083 0 2.417 0zM6.711 15.535v1.242H4.23a.613.613 0 01-.605-.621c0-.343.271-.621.605-.621h2.48zM14.89 12l1.084-1.005.025 3.622-3.501-.403 1.191-1.102a2.38 2.38 0 00-1.784-.55c-1.097.119-1.977.985-2.14 2.105l-1.593-.243c.27-1.869 1.737-3.312 3.563-3.51A3.971 3.971 0 0114.89 12z" id="device-mobile-sync-20px_svg__a"/></defs><use fill="#737373" xlink:href="#device-mobile-sync-20px_svg__a" fill-rule="evenodd"/></svg>
